X:1
T:Mazurka Opus 7 Nr. 2a
T:Opus 7 Nr. 2a
T:MAZURKA
T:Frédéric Chopin
T:Opus 7 Nr. 2a
T:Komponiert 1829
T:Public Domain
T:Public Domain
T:Public Domain
C:Frédéric Chopin
Z:Public Domain
%%score { ( 1 2 ) | ( 3 4 ) }
L:1/8
M:3/4
K:A
V:1 treble nm="Piano" snm="Pno."
V:2 treble 
V:3 bass 
V:4 bass 
V:1
!f! (cB A2 ce | ^dB dB !>!e2 | cB A2 ce) | ^dB !5!dB A2 | cB A2 ce | ^dB dB e2 | (^dB !>![Ee]2 dB | %7
 [Ee]B ^dB eE) |:[K:C]!p! (!4!fe) d2 f2 | (!>!!3!f4 e2) | (3d/!4!e/d/^c (d^deB | !>!!4!=d4) =c2 | %12
 (AB A2 c2) | (!>!B4 e2) | !4!BGE!5!B ^D2 | E4 !3!e2 | !>!fe d2 f2 | !>!f4 e2 | (Td^cd^deB) | %19
 !>!=d4 =c2 | (3A!3!_BA G2 A2 | _B2 d2 !fermata!z2 |"^a tempo" !4!A^G E2 !2!G2 |1 A4 e2 :|2 A4 |: %25
 !1!B2 | (cd c2 _e2) | !3!_e4 d2 | (cd _e2) (!2!ef | _e4) d2 | _b4 (!2!^c2 | a4) =c2 | _a4 =B2 | %33
 g2- g!2!_B=A!3!e | fe d2 f2 | !>!f4 e2 | (3(d/e/d/^c) (d^deB | !>!=d4) =c2 |1 (3A_BA (G2 A2 | %39
 _B2 d2) !fermata!z2 | A^G E2 G2 | A4 :|2 (3A!4!BA ^G2 A2 | c4 (!1!A2 | c4) A2 | c4 !2!A2 || %46
[K:A][M:3/4][Q:1/4=120]"^Vivace""^Trio" c>c d2 B2 | (3G^FE [CA]3 (!4![EB] | %48
!>(! c>)!4!c [Fd]2 [=FB]2!>)! | (3^G^FE [CA]4 |!>(! !3!c>e [Fd]2 !2![=FB]2!>)! | %51
 (3^G^FE [CA]3 !3![EB] |!<(! c>e!<)!!>(! [Fd]2 [=FB]2!>)! |!>(! (3G^FE!>)! [CA]2 z!p! !2!!3![GB] | %54
 !1!!4![Ac]>!2!!4![Ac] !1!!5![Bd]2 !2!!3![GB]2 | (3!1!!5![Ac][GB][FA] !4!!5![Bd]2 [GB]2 | %56
 !1!!5![Ac]>!2!!4![Ac] [Bd]2 [GB]2 | (3[Ac][GB][FA] [ff']2 [ff']2 |!p! [Ac]z/[Ac]/ [Bd] z [GB] z | %59
 (3[Ac][GB][FA] [Bd]2 !4![GB]2 |!<(! (!3!c^d!<)!!>(! e4)!>)! | c^d !>![Ge]4 | c>c =d2 B2 | %63
 (3^G^FE [CA]3 ([EB] |!>(! c>)c [Fd]2 [=FB]2!>)! | (3^G^FE [CA]4 |!>(! c>e [Fd]2 [=FB]2!>)! | %67
 (3^G^FE [CA]3 [EB] |!<(! c>e!<)!!>(! [Fd]2 [=FB]2!>)! |!>(! (3^G^FE!>)! [CA]2 |] %70
V:2
 !>!E2 !>!E2 !>!E2 | !>!E2 !>!E2 !>!E2 | E2 E2 E2 | E2 E2 E2 | E2 E2 E2 | E2 E2 E2 | x6 | x6 |: %8
[K:C] x6 | x6 | x6 | x6 | x6 | x6 | x6 | x6 | x6 | x6 | x6 | x6 | x6 | x6 | x6 |1 x6 :|2 x4 |: x2 | %26
 x6 | x6 | x6 | x6 | x6 | x6 | x6 | x6 | x6 | x6 | x6 | x6 |1 x6 | x6 | x6 | x4 :|2 x6 | x6 | x6 | %45
 x6 ||[K:A][M:3/4] [EA]2 F2 =F2 | D2 x2 x2 | !21!=G2 x2 x2 | !>!D2 x2 x2 | =G2 x2 x2 | D2 x2 x2 | %52
 =G2 x2 x2 | D2 x2 x2 | x6 | x6 | x6 | x6 | x6 | x6 | A2 ^G4 | A2 x2 x2 | =G2 F2 =F2 | D2 x2 x2 | %64
 =G2 x2 x2 | !>!D2 x2 x2 | =G2 x2 x2 | D2 x2 x2 | =G2 x2 x2 | D2 x2 |] %70
V:3
"^Duda" !>!!2![A,,E,]2 !>![A,,E,]2 !>![A,,E,]2 | E,B, [A,,E,]2 [A,,E,]2 | %2
 [A,,E,]2 [A,,E,]2 [A,,E,]2 | E,B, [A,,E,]2 [A,,E,]2 | [A,,E,]2 [A,,E,]2 [A,,E,]2 | %5
 E,B, [A,,E,]2 [A,,E,]2 | z6 | z6 |:[K:C] z2 [A,DF]2 [A,DF]2 | z2 [A,CF]2 [A,CE]2 | %10
 z2 [E,^G,D]2 [E,G,D]2 | z2 [F,A,D]2 [F,A,C]2 | z2 [E,C]2 A,,2 | z2 [E,G,B,]2 [E,G,B,]2 | %14
 z2 [B,,E,G,B,]2 ([B,,^F,B,]2 | [E,^G,B,]2) E,,2 z2 | z2 [A,DF]2 [A,DF]2 | z2 [A,CF]2 [A,CE]2 | %18
 z2 [E,^G,D]2 [E,G,D]2 | z2 [F,A,D]2 [F,A,C]2 | z2 [F,A,_E]2 [F,CE]2 | D2 F2 !fermata!z2 | %22
 z2 [E,=B,D]2 [E,B,D]2 |1 [A,C]2 A,,2 z2 :|2 [A,C]2 A,,2 |: z2 | z2 [_A,C^F]2 [A,CF]2 | %27
 z2 [G,C^F]2 [G,B,G]2 | z2 [_A,C^F]2 [A,CF]2 | z2 [_A,_C=F]2 [A,_B,F]2 | z2 [G,_B,G]2 [G,B,=E]2 | %31
 z2 !3![G,A,E]2 [^F,A,_E]2 | z2 [=F,_A,C_E]2 [F,A,D]2 | z2 [=E,G,D]2 [E,G,^C]2 | %34
 [D,A,D]2 [A,DF]2 [A,DF]2 | z2 [A,DF]2 [A,CE]2 | z2 [E,^G,D]2 [E,G,D]2 | z2 [F,A,D]2 [F,A,C]2 |1 %38
 z2 [F,C_E]2 ([F,CE]2 | D2 F2) !fermata!z2 | z2 [E,^G,D]2 [E,G,D]2 | [A,C]2 A,,2 :|2 %42
 z2 [C,E,A,]2 [C,E,A,]2 | z2!<(! [D,A,]2 [D,A,]2!<)! | %44
 z2"_cre  -      -   scendo"!<(! [^D,A,]2 [D,A,]2!<)! | z2"_poi il Trio" [E,A,]2 [E,A,]2 || %46
[K:A][M:3/4]"^mezza voce" [A,,A,]2 D,2 D,,2 |{/E,,} (E,2 !5!A,,2 E,2 | A,2) D,2 D,,2 | %49
{/E,,} (E,2 A,,2 E,2 | A,2) D,2 D,,2 |{/E,,} (E,2 A,,2 E,2 | A,2) D,2 D,,2 |{/E,,} E,2 A,,2 z2 | %54
 C>C D2 B,2 | (3CB,A, D2 B,2 | C>C D2 B,2 | (3CB,A, [F,,F,]2 [F,,F,]2 |"^naiwnie" C>C D2 B,2 | %59
 (3CB,A, D2 B,2 | !2!C!1!B,- (B,4 | C)B,- B,4 | E,2 D,2 D,,2 |{/E,,} (E,2 A,,2 E,2 | %64
 A,2) D,2 D,,2 |{/E,,} (E,2 A,,2 E,2 | A,2) D,2 D,,2 |{/E,,} (E,2 A,,2 E,2 | A,2) D,2 D,,2 | %69
{/E,,} E,2 A,,2 |] %70
V:4
 x6 | A,,2 x2 x2 | x6 | A,,2 x2 x2 | x6 | A,,2 x2 x2 | x6 | x6 |:[K:C] x6 | x6 | x6 | x6 | x6 | %13
 x6 | x6 | x6 | x6 | x6 | x6 | x6 | x6 | !4!_B,4 x2 | x6 |1 x6 :|2 x4 |: x2 | x6 | x6 | x6 | x6 | %30
 x6 | x6 | x6 | x6 | x6 | x6 | x6 | x6 |1 x6 | _B,4 x2 | x6 | x4 :|2 x6 | x6 | x6 | x6 || %46
[K:A][M:3/4] x6 | x6 | x6 | x6 | x6 | x6 | x6 | x6 | F,6 | F,6 | F,6 | F,2 x2 x2 | F,6 | F,6 | %60
 F,2 (E,4 | E,2) E,4- | A,4 x2 | x6 | x6 | x6 | x6 | x6 | x6 | x4 |] %70

